icons/desktop/screensaver.svg

<?xml version="1.0" encoding="UTF-8" standalone="no"?>
<svg
   xmlns:dc="http://purl.org/dc/elements/1.1/"
   xmlns:cc="http://creativecommons.org/ns#"
   xmlns:rdf="http://www.w3.org/1999/02/22-rdf-syntax-ns#"
   xmlns:svg="http://www.w3.org/2000/svg"
   xmlns="http://www.w3.org/2000/svg"
   xmlns:sodipodi="http://sodipodi.sourceforge.net/DTD/sodipodi-0.dtd"
   xmlns:inkscape="http://www.inkscape.org/namespaces/inkscape"
   viewBox="0 0 16 16"
   version="1.1"
   id="svg8"
   sodipodi:docname="video-display-symbolic.svg"
   inkscape:version="1.0.2 (e86c870879, 2021-01-15)">
  <metadata
     id="metadata14">
    <rdf:RDF>
      <cc:Work
         rdf:about="">
        <dc:format>image/svg+xml</dc:format>
        <dc:type
           rdf:resource="http://purl.org/dc/dcmitype/StillImage" />
      </cc:Work>
    </rdf:RDF>
  </metadata>
  <defs
     id="defs12" />
  <sodipodi:namedview
     pagecolor="#ffffff"
     bordercolor="#666666"
     borderopacity="1"
     objecttolerance="10"
     gridtolerance="10"
     guidetolerance="10"
     inkscape:pageopacity="0"
     inkscape:pageshadow="2"
     inkscape:window-width="1920"
     inkscape:window-height="1016"
     id="namedview10"
     showgrid="true"
     inkscape:snap-center="true"
     inkscape:zoom="13.75"
     inkscape:cx="0.65921276"
     inkscape:cy="7.1417148"
     inkscape:window-x="0"
     inkscape:window-y="27"
     inkscape:window-maximized="1"
     inkscape:current-layer="svg8">
    <inkscape:grid
       type="xygrid"
       id="grid848" />
  </sodipodi:namedview>
  <g
     fill="gray"
     id="g6">
    <path
       d="M3.994 1c-1.258.015-2.179-.03-2.931.385a1.88 1.88 0 0 0-.838.998C.06 2.822 0 3.343 0 4v6c0 .658.06 1.179.225 1.617.164.439.461.79.838.998.752.416 1.673.37 2.931.385H12.006c1.258-.014 2.179.03 2.932-.385a1.88 1.88 0 0 0 .838-.998c.164-.438.224-.96.224-1.617V4c0-.658-.06-1.178-.225-1.617a1.88 1.88 0 0 0-.837-.998c-.753-.416-1.674-.37-2.932-.385H3.998zM4 2h8c1.259.015 2.087.06 2.453.262.184.101.29.213.387.472.097.26.16.674.16 1.266v6c0 .592-.063 1.006-.16 1.266-.098.26-.203.371-.387.472-.366.202-1.194.247-2.453.262H4c-1.258-.015-2.09-.06-2.455-.262-.183-.1-.287-.212-.385-.472C1.063 11.006 1 10.592 1 10V4c0-.592.063-1.006.16-1.266.098-.26.202-.371.385-.472C1.91 2.06 2.74 2.015 4 2z"
       font-family="sans-serif"
       font-weight="400"
       overflow="visible"
       style="font-feature-settings:normal;font-variant-alternates:normal;font-variant-caps:normal;font-variant-ligatures:normal;font-variant-numeric:normal;font-variant-position:normal;isolation:auto;mix-blend-mode:normal;shape-padding:0;text-decoration-color:#000;text-decoration-line:none;text-decoration-style:solid;text-indent:0;text-orientation:mixed;text-transform:none"
       white-space="normal"
       id="path2" />
    <path
       d="M6 12h4v1.5c0 1.5.5 1.5 1.5 1.5h.5v1H4v-1h.5c1 0 1.5 0 1.5-1.5z"
       overflow="visible"
       id="path4" />
  </g>
  <path
     style="fill:#808080;stroke-width:0.999994;marker:none;fill-opacity:1"
     d="m 9.665393,4 c 0.371999,0.4499992 0.596999,1.0259983 0.596999,1.6559973 a 2.6063956,2.6063956 0 0 1 -2.6063948,2.6063955 c -0.6299989,0 -1.205998,-0.2255996 -1.6559972,-0.596999 a 3.0329949,3.0329949 0 0 0 2.9591951,2.3345965 3.0407949,3.0407949 0 0 0 3.0407959,-3.0407953 3.0329949,3.0329949 0 0 0 -2.334598,-2.959195 z"
     id="path2-2" />
  <path
     d="m 3.5857863,6.4142139 0.7118209,-1.4142141 -0.7118207,-1.4142137 1.4142135,0.711821 1.4142137,-0.7118209 -0.711821,1.4142136 0.711821,1.4142132 -1.4142138,-0.7118204 z"
     style="fill:#808080;fill-opacity:1;stroke-width:1;marker:none"
     color="#000000"
     overflow="visible"
     id="path4-9" />
</svg>

<?xml version="1.0" encoding="UTF-8" standalone="no"?>
<svg
   viewBox="0 0 16 16"
   version="1.1"
   id="svg8"
   sodipodi:docname="screensaver.svg"
   inkscape:version="1.1 (ce6663b3b7, 2021-05-25)"
   xmlns:inkscape="http://www.inkscape.org/namespaces/inkscape"
   xmlns:sodipodi="http://sodipodi.sourceforge.net/DTD/sodipodi-0.dtd"
   xmlns="http://www.w3.org/2000/svg"
   xmlns:svg="http://www.w3.org/2000/svg"
   xmlns:rdf="http://www.w3.org/1999/02/22-rdf-syntax-ns#"
   xmlns:cc="http://creativecommons.org/ns#"
   xmlns:dc="http://purl.org/dc/elements/1.1/">
  <metadata
     id="metadata14">
    <rdf:RDF>
      <cc:Work
         rdf:about="">
        <dc:format>image/svg+xml</dc:format>
        <dc:type
           rdf:resource="http://purl.org/dc/dcmitype/StillImage" />
      </cc:Work>
    </rdf:RDF>
  </metadata>
  <defs
     id="defs12" />
  <sodipodi:namedview
     pagecolor="#ffffff"
     bordercolor="#666666"
     borderopacity="1"
     objecttolerance="10"
     gridtolerance="10"
     guidetolerance="10"
     inkscape:pageopacity="0"
     inkscape:pageshadow="2"
     inkscape:window-width="1920"
     inkscape:window-height="1016"
     id="namedview10"
     showgrid="true"
     inkscape:snap-center="true"
     inkscape:zoom="13.75"
     inkscape:cx="0.69090909"
     inkscape:cy="7.1636364"
     inkscape:window-x="0"
     inkscape:window-y="27"
     inkscape:window-maximized="1"
     inkscape:current-layer="svg8"
     inkscape:pagecheckerboard="0">
    <inkscape:grid
       type="xygrid"
       id="grid848" />
  </sodipodi:namedview>
  <path
     id="path2"
     style="font-variant-ligatures:normal;font-variant-position:normal;font-variant-caps:normal;font-variant-numeric:normal;font-variant-alternates:normal;font-feature-settings:normal;text-indent:0;text-decoration-line:none;text-decoration-style:solid;text-decoration-color:#000000;text-transform:none;text-orientation:mixed;shape-padding:0;isolation:auto;mix-blend-mode:normal;fill:#808080"
     d="M 3.9941406 1 C 2.7361406 1.015 1.8145 0.96976562 1.0625 1.3847656 A 1.88 1.88 0 0 0 0.22460938 2.3828125 C 0.059609375 2.8218125 1.8503717e-17 3.343 0 4 L 0 10 C 0 10.658 0.059609375 11.179188 0.22460938 11.617188 C 0.38860938 12.056188 0.6855 12.407234 1.0625 12.615234 C 1.8145 13.031234 2.7361406 12.985 3.9941406 13 L 6 13 L 6 13.5 C 6 15 5.5 15 4.5 15 L 4 15 L 4 16 L 12 16 L 12 15 L 11.5 15 C 10.5 15 10 15 10 13.5 L 10 13 L 12.005859 13 C 13.263859 12.986 14.1845 13.030234 14.9375 12.615234 A 1.88 1.88 0 0 0 15.775391 11.617188 C 15.939391 11.179187 16 10.657 16 10 L 16 4 C 16 3.342 15.940391 2.8218125 15.775391 2.3828125 A 1.88 1.88 0 0 0 14.9375 1.3847656 C 14.1845 0.96876563 13.263859 1.015 12.005859 1 L 3.9980469 1 L 3.9941406 1 z M 4 2 L 12 2 C 13.259 2.015 14.087125 2.0597188 14.453125 2.2617188 C 14.637125 2.3627187 14.742844 2.475375 14.839844 2.734375 C 14.936844 2.994375 15 3.408 15 4 L 15 10 C 15 10.592 14.936844 11.005625 14.839844 11.265625 C 14.741844 11.525625 14.637125 11.637281 14.453125 11.738281 C 14.087125 11.940281 13.259 11.985 12 12 L 10 12 L 6 12 L 4 12 C 2.742 11.985 1.9099219 11.940281 1.5449219 11.738281 C 1.3619219 11.638281 1.2581563 11.525625 1.1601562 11.265625 C 1.0631563 11.005625 1 10.592 1 10 L 1 4 C 1 3.408 1.0631563 2.994375 1.1601562 2.734375 C 1.2581563 2.474375 1.3619219 2.3627188 1.5449219 2.2617188 C 1.9099219 2.0597188 2.74 2.015 4 2 z M 3.5859375 3.5859375 L 4.296875 5 L 3.5859375 6.4140625 L 5 5.703125 L 6.4140625 6.4140625 L 5.703125 5 L 6.4140625 3.5859375 L 5 4.296875 L 3.5859375 3.5859375 z M 9.6660156 4 C 10.038015 4.4499992 10.261719 5.026251 10.261719 5.65625 A 2.6063956 2.6063956 0 0 1 7.65625 8.2617188 C 7.0262511 8.2617188 6.4499992 8.037415 6 7.6660156 A 3.0329949 3.0329949 0 0 0 8.9589844 10 A 3.0407949 3.0407949 0 0 0 12 6.9589844 A 3.0329949 3.0329949 0 0 0 9.6660156 4 z " />
</svg>
